packages/ankr-earn/src/assets/img/avax-chain-icon.svg

<svg width="48" height="48" viewBox="0 0 48 48" fill="none" xmlns="http://www.w3.org/2000/svg">
  <circle cx="24" cy="24" r="24" fill="#E3453D"/>
  <path
    d="M32.1018 25.4315C31.5159 24.39 30.5785 24.39 29.9926 25.4315L26.2932 31.9701C25.7073 32.9944 26.1927 33.848 27.3478 33.848H34.6797C35.8515 33.848 36.3369 32.9944 35.7511 31.9701L32.1018 25.4315Z"
    fill="white"/>
  <path
    d="M27.8167 17.732L25.8916 14.2663L25.0714 12.7811C24.4855 11.7396 23.5481 11.7396 22.9622 12.7811L12.2488 31.9532C11.6629 32.9945 12.1484 33.8311 13.3202 33.8311H16.2998H18.342H18.6936C19.6645 33.8311 20.8697 33.1311 21.3552 32.2605L27.8167 20.8562C28.2854 20.0197 28.2854 18.6027 27.8167 17.732Z"
    fill="white"/>
</svg>

<svg width="48" height="48" fill="none" xmlns="http://www.w3.org/2000/svg"><circle cx="24" cy="24" r="24" fill="#E3453D"/><path d="M32.102 25.431c-.586-1.041-1.523-1.041-2.11 0l-3.699 6.54c-.586 1.023-.1 1.877 1.055 1.877h7.332c1.172 0 1.657-.854 1.071-1.878l-3.65-6.538zM27.817 17.732l-1.925-3.466-.82-1.485c-.587-1.041-1.524-1.041-2.11 0L12.25 31.953c-.586 1.042-.1 1.878 1.071 1.878H18.694c.97 0 2.176-.7 2.661-1.57l6.462-11.405c.468-.836.468-2.253 0-3.124z" fill="#fff"/></svg>
